X:1
T:James Gibb editions
T:We come unto our fathers' God - Barnby
%%score [ ( 1 2 ) ( 3 4 ) ]
L:1/8
Q:1/4=84
M:4/4
K:F
V:1 treble nm="Midi_74"
V:2 treble 
V:3 bass nm="Midi_74"
V:4 bass 
V:1
"^Thomas Hornblower Gill\n(1819-1906)""^The golden chain (87. 87. 887)""^We come unto our fathers' God""^Joseph Barnby\n(1838-96)" A2 | %1
 A3 A A2 A2 | c3 c c2 || c2 | f2 d2 B2 d2 | c4 c2 || A2 | G3 G F2 c2 | B3 B A2 || d2 | %10
 c2 =BA e2 Bc |[M:4/4] =B4 A2 || c2 | c3 d c2 B2 | A2 B2 c2 || c2 | d3 _e d2 c2 | B2 c2 d2 || e2 | %19
 f2 F2 F2 B2 | G4 F4 || B4 A4 |] %22
V:2
 F2 | F3 F F2 F2 | A3 A A2 || A2 | B2 F2 F2 F2 | F4 F2 || F2 | E3 E F2 F2 | F2 E2 F2 || A2 | %10
 A2 E2 ^G2 G2 |[M:4/4] ^G4 A2 || E2 | E2 E2 F2 G2 | A2 E2 F2 || A2 | A2 ^F2 G2 A2 | G2 A2 B2 || %18
 AG | F2 _E2 D2 D2 | E4 F4 || F4 F4 |] %22
V:3
 C2 | C3 C C2 C2 | _E3 E E2 || _E2 | D2 B,2 F,2 B,2 | A,4 A,2 || C2 | C3 C C2 C2 | D2 C2 C2 || F2 | %10
 E2 C2 =B,2 D2 | %11
[M:4/4]"^1. We come unto our fathers' God:\nTheir Rock is our Salvation:\nThe eternal arms, their dear abode,\nWe make our habitation:\nWe bring Thee, Lord, the praise they brought,\nWe seek Thee as Thy saints have sought\nIn every generation.\n\n2. The fire divine, their steps that led,\nStill goeth bright before us;\nThe heavenly shield, around them spread,\nIs still high holden o'er us;\nThe grace those sinners that subdued,\nThe strength those weaklings that renewed,\nDoth vanquish, doth restore us.\n\n3. The cleaving sins that brought them low\nAre still our souls oppressing;\nThe tears that from their eyes did flow\nFall fast, our shame confessing;\nAs with Thee, Lord, prevailed their cry,\nSo our strong prayer ascends on high,\nAnd bringeth down Thy blessing." D4 C2 || %12
 A,2 | !courtesy!_B,2 B,2 A,2 G,2 | C2 C2 F2 || _E2 | %16
 D2 C2 B,2"^4. Their joy unto their Lord we bring;\nTheir song to us descendeth;\nThe Spirit who in them did sing\nTo us His music lendeth.\nHis song in them, in us, is one;\nWe raise it high, we send it on\nThe song that never endeth!\n\n5. Ye saints of God, take up the strain\nThe same sweet theme endeavour!\nUnbroken be the golden chain!\nRing out the song for ever!\nSafe in the same dear dwelling-place,\nRich with the same eternal grace,\nBless the same boundless Giver!" A,2 | %17
 D2 C2 B,2 || CB, | A,2 C2 B,2 B,2 | B,4 A,4 || D4 C4 |] %22
V:4
 F,2 | F,3 F, F,2 F,2 | F,3 F, F,2 || F,2 | B,,2 B,,2 D,2 B,,2 | F,4 F,2 || A,2 | B,3 B, A,2 A,2 | %8
 G,2 C2 F,2 || D,2 | E,2 E,2 E,2 E,2 |[M:4/4] A,4 A,2 || A,2 | G,2 C,2 D,2 E,2 | F,2 G,2 A,2 || %15
 G,2 | ^F,2 D,2 E,2 F,2 | G,2 G,2 G,2 || C,2 | D,2 A,,2 B,,2 G,,2 | C,4 F,4 || B,,4 F,4 |] %22

